packages/icons/src/transparency-grid.svg

<svg xmlns="http://www.w3.org/2000/svg" width="15" height="15" fill="none"><path fill="currentColor" fill-rule="evenodd" d="M0 0h3v3H0zm6 3H3v3H0v3h3v3H0v3h3v-3h3v3h3v-3h3v3h3v-3h-3V9h3V6h-3V3h3V0h-3v3H9V0H6zm0 3V3h3v3zm0 3H3V6h3zm3 0V6h3v3zm0 0H6v3h3z" clip-rule="evenodd" opacity=".25"/></svg>

<svg width="15" height="15" viewBox="0 0 15 15" fill="none" xmlns="http://www.w3.org/2000/svg">
  <path
    opacity=".25"
    fill-rule="evenodd"
    clip-rule="evenodd"
    d="M0 0H3V3H0V0ZM6 3H3V6H0V9H3V12H0V15H3V12H6V15H9V12H12V15H15V12H12V9H15V6H12V3H15V0H12V3H9V0H6V3ZM6 6V3H9V6H6ZM6 9H3V6H6V9ZM9 9V6H12V9H9ZM9 9H6V12H9V9Z"
    fill="currentColor"
  />
</svg>
